FroPack3/Zoolander.xmp
<x:xmpmeta xmlns:x="adobe:ns:meta/" x:xmptk="Adobe XMP Core 5.6-c140 79.160451, 2017/05/06-01:08:21        ">
 <rdf:RDF xmlns:rdf="http://www.w3.org/1999/02/22-rdf-syntax-ns#">
  <rdf:Description rdf:about=""
    xmlns:crs="http://ns.adobe.com/camera-raw-settings/1.0/"
   crs:PresetType="Normal"
   crs:Cluster=""
   crs:UUID="4FC9425244C64BDF81B9FAF0D8EB501A"
   crs:SupportsAmount="False"
   crs:SupportsColor="True"
   crs:SupportsMonochrome="True"
   crs:SupportsHighDynamicRange="True"
   crs:SupportsNormalDynamicRange="True"
   crs:SupportsSceneReferred="True"
   crs:SupportsOutputReferred="True"
   crs:CameraModelRestriction=""
   crs:Copyright=""
   crs:ContactInfo=""
   crs:Version="13.1"
   crs:ProcessVersion="11.0"
   crs:Contrast2012="+3"
   crs:Highlights2012="-17"
   crs:Shadows2012="+27"
   crs:Whites2012="-13"
   crs:Blacks2012="+23"
   crs:Texture="+9"
   crs:Clarity2012="-14"
   crs:Dehaze="+3"
   crs:Vibrance="+33"
   crs:Saturation="-27"
   crs:ParametricShadows="-5"
   crs:ParametricDarks="+47"
   crs:ParametricLights="-34"
   crs:ParametricHighlights="+10"
   crs:ParametricShadowSplit="20"
   crs:ParametricMidtoneSplit="48"
   crs:ParametricHighlightSplit="90"
   crs:Sharpness="50"
   crs:SharpenRadius="+1.0"
   crs:SharpenDetail="30"
   crs:SharpenEdgeMasking="68"
   crs:LuminanceSmoothing="0"
   crs:ColorNoiseReduction="25"
   crs:ColorNoiseReductionDetail="85"
   crs:ColorNoiseReductionSmoothness="85"
   crs:HueAdjustmentRed="0"
   crs:HueAdjustmentOrange="-4"
   crs:HueAdjustmentYellow="-56"
   crs:HueAdjustmentGreen="+11"
   crs:HueAdjustmentAqua="+13"
   crs:HueAdjustmentBlue="-15"
   crs:HueAdjustmentPurple="0"
   crs:HueAdjustmentMagenta="0"
   crs:SaturationAdjustmentRed="0"
   crs:SaturationAdjustmentOrange="-3"
   crs:SaturationAdjustmentYellow="-62"
   crs:SaturationAdjustmentGreen="-41"
   crs:SaturationAdjustmentAqua="-17"
   crs:SaturationAdjustmentBlue="-12"
   crs:SaturationAdjustmentPurple="-21"
   crs:SaturationAdjustmentMagenta="-23"
   crs:LuminanceAdjustmentRed="0"
   crs:LuminanceAdjustmentOrange="0"
   crs:LuminanceAdjustmentYellow="0"
   crs:LuminanceAdjustmentGreen="+9"
   crs:LuminanceAdjustmentAqua="0"
   crs:LuminanceAdjustmentBlue="-23"
   crs:LuminanceAdjustmentPurple="0"
   crs:LuminanceAdjustmentMagenta="0"
   crs:SplitToningShadowHue="288"
   crs:SplitToningShadowSaturation="5"
   crs:SplitToningHighlightHue="112"
   crs:SplitToningHighlightSaturation="10"
   crs:SplitToningBalance="-7"
   crs:ColorGradeMidtoneHue="35"
   crs:ColorGradeMidtoneSat="17"
   crs:ColorGradeShadowLum="-13"
   crs:ColorGradeMidtoneLum="0"
   crs:ColorGradeHighlightLum="+13"
   crs:ColorGradeBlending="62"
   crs:ColorGradeGlobalHue="209"
   crs:ColorGradeGlobalSat="4"
   crs:ColorGradeGlobalLum="0"
   crs:AutoLateralCA="1"
   crs:DefringePurpleAmount="0"
   crs:DefringePurpleHueLo="30"
   crs:DefringePurpleHueHi="70"
   crs:DefringeGreenAmount="0"
   crs:DefringeGreenHueLo="40"
   crs:DefringeGreenHueHi="60"
   crs:GrainAmount="0"
   crs:PostCropVignetteAmount="0"
   crs:ShadowTint="-63"
   crs:RedHue="+6"
   crs:RedSaturation="0"
   crs:GreenHue="+31"
   crs:GreenSaturation="+13"
   crs:BlueHue="-11"
   crs:BlueSaturation="0"
   crs:OverrideLookVignette="False"
   crs:ToneCurveName2012="Custom"
   crs:HasSettings="True">
   <crs:Name>
    <rdf:Alt>
     <rdf:li xml:lang="x-default">Zoolander</rdf:li>
    </rdf:Alt>
   </crs:Name>
   <crs:ShortName>
    <rdf:Alt>
     <rdf:li xml:lang="x-default"/>
    </rdf:Alt>
   </crs:ShortName>
   <crs:SortName>
    <rdf:Alt>
     <rdf:li xml:lang="x-default"/>
    </rdf:Alt>
   </crs:SortName>
   <crs:Group>
    <rdf:Alt>
     <rdf:li xml:lang="x-default">FroPack3</rdf:li>
    </rdf:Alt>
   </crs:Group>
   <crs:Description>
    <rdf:Alt>
     <rdf:li xml:lang="x-default"/>
    </rdf:Alt>
   </crs:Description>
   <crs:ToneCurvePV2012>
    <rdf:Seq>
     <rdf:li>0, 37</rdf:li>
     <rdf:li>71, 57</rdf:li>
     <rdf:li>129, 129</rdf:li>
     <rdf:li>206, 217</rdf:li>
     <rdf:li>255, 243</rdf:li>
    </rdf:Seq>
   </crs:ToneCurvePV2012>
   <crs:ToneCurvePV2012Red>
    <rdf:Seq>
     <rdf:li>0, 0</rdf:li>
     <rdf:li>50, 32</rdf:li>
     <rdf:li>129, 129</rdf:li>
     <rdf:li>214, 228</rdf:li>
     <rdf:li>255, 255</rdf:li>
    </rdf:Seq>
   </crs:ToneCurvePV2012Red>
   <crs:ToneCurvePV2012Green>
    <rdf:Seq>
     <rdf:li>0, 0</rdf:li>
     <rdf:li>50, 32</rdf:li>
     <rdf:li>129, 129</rdf:li>
     <rdf:li>214, 228</rdf:li>
     <rdf:li>255, 255</rdf:li>
    </rdf:Seq>
   </crs:ToneCurvePV2012Green>
   <crs:ToneCurvePV2012Blue>
    <rdf:Seq>
     <rdf:li>0, 0</rdf:li>
     <rdf:li>50, 32</rdf:li>
     <rdf:li>129, 129</rdf:li>
     <rdf:li>214, 228</rdf:li>
     <rdf:li>255, 255</rdf:li>
    </rdf:Seq>
   </crs:ToneCurvePV2012Blue>
   <crs:Look>
    <rdf:Description
     crs:Name="Adobe Color"
     crs:Amount="1.000000"
     crs:UUID="B952C231111CD8E0ECCF14B86BAA7077"
     crs:SupportsAmount="false"
     crs:SupportsMonochrome="false"
     crs:SupportsOutputReferred="false"
     crs:Copyright="© 2018 Adobe Systems, Inc."
     crs:Stubbed="true">
    <crs:Group>
     <rdf:Alt>
      <rdf:li xml:lang="x-default">Profiles</rdf:li>
     </rdf:Alt>
    </crs:Group>
    </rdf:Description>
   </crs:Look>
  </rdf:Description>
 </rdf:RDF>
</x:xmpmeta>
